dist/img/svg/envelope.svg

<svg width="18" height="13" viewBox="0 0 18 13" xmlns="http://www.w3.org/2000/svg">
<path d="M17.7044 1.60228C17.7044 0.721026 16.9077 0 15.934 0H1.77044C0.796698 0 0 0.721026 0 1.60228V11.216C0 12.0972 0.796698 12.8182 1.77044 12.8182H15.934C16.9077 12.8182 17.7044 12.0972 17.7044 11.216V1.60228ZM15.934 1.60228L8.8522 5.60798L1.77044 1.60228H15.934ZM15.934 11.216H1.77044V3.20456L8.8522 7.21026L15.934 3.20456V11.216Z"/>
</svg>

<svg width="18" height="13" viewBox="0 0 18 13" xmlns="http://www.w3.org/2000/svg"><path d="M17.704 1.602c0-.881-.796-1.602-1.77-1.602H1.77C.797 0 0 .721 0 1.602v9.614c0 .881.797 1.602 1.77 1.602h14.164c.974 0 1.77-.72 1.77-1.602V1.602zm-1.77 0L8.852 5.608 1.77 1.602h14.164zm0 9.614H1.77V3.205L8.852 7.21l7.082-4.005v8.011z"/></svg>
